X: 41116
T: Trip To Sligo, The
R: jig
M: 6/8
K: Eminor
D|:E2e BGE|D2d AFD|E2e BGE|GFE e2f|
gfe dBG|ABG FED|EFG ABc|1 BGF E2D:|2 BGF E3||
|:eBe gfe|dAd fed|eBe gfe|f/g/af gfe|
faf gfe|d^cB AFD|EFG ABc|BGF E3:|

